local/share/icons/dracula-icons-main/scalable/apps/fritzing.svg

<?xml version="1.0" encoding="UTF-8"?>
<svg xmlns="http://www.w3.org/2000/svg" xmlns:xlink="http://www.w3.org/1999/xlink" width="64" height="64" viewBox="0 0 64 64">
<path fill-rule="nonzero" fill="rgb(100%, 33.333333%, 33.333333%)" fill-opacity="1" d="M 15.609375 8.460938 C 15.609375 12.40625 12.410156 15.605469 8.464844 15.605469 C 4.519531 15.605469 1.324219 12.40625 1.324219 8.460938 C 1.324219 4.515625 4.519531 1.316406 8.464844 1.316406 C 12.410156 1.316406 15.609375 4.515625 15.609375 8.460938 Z M 15.609375 8.460938 "/>
<path fill-rule="nonzero" fill="rgb(100%, 100%, 100%)" fill-opacity="1" d="M 9.910156 4.234375 C 9.730469 4.230469 9.488281 4.238281 9.234375 4.285156 C 8.980469 4.332031 8.707031 4.414062 8.464844 4.613281 C 8.222656 4.808594 8.042969 5.140625 8.042969 5.519531 L 8.042969 6.785156 L 6.777344 6.785156 C 6.625 6.78125 6.484375 6.863281 6.410156 6.996094 C 6.332031 7.125 6.332031 7.289062 6.410156 7.417969 C 6.484375 7.550781 6.625 7.632812 6.777344 7.628906 L 8.042969 7.628906 L 8.042969 8.507812 C 7.058594 8.710938 6.351562 9.578125 6.351562 10.582031 C 6.351562 11.753906 7.296875 12.699219 8.464844 12.699219 C 9.636719 12.699219 10.582031 11.753906 10.582031 10.582031 C 10.582031 9.578125 9.875 8.714844 8.890625 8.511719 L 8.890625 7.628906 L 10.15625 7.628906 C 10.308594 7.632812 10.449219 7.550781 10.527344 7.417969 C 10.601562 7.289062 10.601562 7.125 10.527344 6.996094 C 10.449219 6.863281 10.308594 6.78125 10.15625 6.785156 L 8.890625 6.785156 L 8.890625 5.519531 C 8.890625 5.367188 8.921875 5.328125 8.996094 5.269531 C 9.074219 5.207031 9.21875 5.144531 9.390625 5.113281 C 9.726562 5.050781 10.105469 5.09375 10.105469 5.09375 C 10.253906 5.113281 10.402344 5.050781 10.496094 4.929688 C 10.585938 4.808594 10.609375 4.648438 10.546875 4.507812 C 10.488281 4.371094 10.359375 4.273438 10.210938 4.253906 C 10.210938 4.253906 10.09375 4.238281 9.910156 4.234375 Z M 8.378906 9.316406 C 8.382812 9.316406 8.386719 9.316406 8.390625 9.316406 C 8.4375 9.324219 8.488281 9.324219 8.535156 9.316406 C 9.207031 9.351562 9.734375 9.910156 9.738281 10.582031 C 9.738281 11.285156 9.167969 11.851562 8.464844 11.851562 C 7.765625 11.851562 7.195312 11.285156 7.195312 10.582031 C 7.195312 9.917969 7.710938 9.363281 8.378906 9.316406 Z M 8.378906 9.316406 "/>
</svg>

<svg width="64" height="64" version="1.1" viewBox="0 0 16.933 16.933" xmlns="http://www.w3.org/2000/svg">
 <circle cx="8.4665" cy="8.46" r="7.1436" fill="#f55" style="paint-order:stroke markers fill"/>
 <path d="m9.9118 4.2344c-0.18065-0.00448-0.42492 0.00241-0.67802 0.049603-0.2531 0.047203-0.52816 0.13153-0.76898 0.32743-0.24081 0.19592-0.42004 0.52913-0.42004 0.90624v1.2667h-1.2667a0.42255 0.42255 0 1 0 0 0.84505h1.2667v0.87977a2.1168 2.1168 0 0 0-1.6951 2.0738 2.1168 2.1168 0 0 0 2.1168 2.1168 2.1168 2.1168 0 0 0 2.1168-2.1168 2.1168 2.1168 0 0 0-1.6934-2.0704v-0.88308h1.2667a0.42255 0.42255 0 1 0 0-0.84505h-1.2667v-1.2667c0-0.15252 0.03158-0.18795 0.10749-0.24971 0.07592-0.061764 0.22272-0.12225 0.39193-0.1538 0.33842-0.063108 0.71441-0.021441 0.71441-0.021441a0.42255 0.42255 0 1 0 0.10583-0.83843s-0.11703-0.015361-0.29768-0.019841zm-1.5346 5.0819a1.2701 1.2701 0 0 1 0.01159 0 0.42255 0.42255 0 0 0 0.0017 0 0.42255 0.42255 0 0 0 0.14552 0 1.2701 1.2701 0 0 1 1.2006 1.2667 1.2701 1.2701 0 0 1-1.27 1.27 1.2701 1.2701 0 0 1-1.2701-1.27 1.2701 1.2701 0 0 1 1.1807-1.2667z" fill="#fff" stroke-width=".26458"/>
</svg>
